Yaru++/apps/scalable/playonlinux.svg

<svg height="256" viewBox="0 0 256 256" width="256" xmlns="http://www.w3.org/2000/svg" xmlns:xlink="http://www.w3.org/1999/xlink">
  <filter id="filter837" color-interpolation-filters="sRGB" height="1.024" width="1.024" x="-.012" y="-.012">
    <feGaussianBlur stdDeviation="1.1400003"/>
  </filter>
  <filter id="filter871" color-interpolation-filters="sRGB" height="1.096" width="1.096" x="-.048" y="-.048">
    <feGaussianBlur stdDeviation="4.5600014"/>
  </filter>
  <path d="m143.37858 11.059087c-21.87815.371286-30.19933 32.789112-26.93349 66.305912-17.197362-37.851982-48.869359-65.40812-69.065259-30.428396-7.512909 13.047979-7.943947 22.436019-4.983928 29.273366-7.394922.854983-15.311856 5.934144-22.846146 18.955623-17.8479596 30.895188 19.210131 46.001318 59.073552 43.833518-36.24202 17.4749-61.399359 47.98073-27.368858 67.62793 13.049063 7.51268 22.435351 7.94381 29.269391 4.98393.860135 7.39479 5.93422 15.31051 18.951646 22.84018 30.205802 17.44908 45.272842-17.59154 43.909052-56.41559 18.23055 34.3144 48.84297 57.10645 66.27808 26.88577 7.50864-13.02921 7.94828-22.42468 4.99586-29.25945 7.39844-.85361 15.31351-5.92112 22.85808-18.95164 19.63864-34.01454-17.35974-47.86734-57.46327-44.8971 35.58238-18.062291 60.08347-49.654955 29.18788-67.476846-13.03027-7.508503-22.426-7.950124-29.25747-4.997844-.85501-7.398208-5.92537-15.312528-18.95562-22.856087-6.64417-3.836263-12.51906-5.510343-17.6495-5.423276z" fill="#010306" filter="url(#filter871)" opacity=".1" stroke-width="4.384643"/>
  <path d="m143.37858 11.059087c-21.87815.371286-30.19933 32.789112-26.93349 66.305912-17.197362-37.851982-48.869359-65.40812-69.065259-30.428396-7.512909 13.047979-7.943947 22.436019-4.983928 29.273366-7.394922.854983-15.311856 5.934144-22.846146 18.955623-17.8479596 30.895188 19.210131 46.001318 59.073552 43.833518-36.24202 17.4749-61.399359 47.98073-27.368858 67.62793 13.049063 7.51268 22.435351 7.94381 29.269391 4.98393.860135 7.39479 5.93422 15.31051 18.951646 22.84018 30.205802 17.44908 45.272842-17.59154 43.909052-56.41559 18.23055 34.3144 48.84297 57.10645 66.27808 26.88577 7.50864-13.02921 7.94828-22.42468 4.99586-29.25945 7.39844-.85361 15.31351-5.92112 22.85808-18.95164 19.63864-34.01454-17.35974-47.86734-57.46327-44.8971 35.58238-18.062291 60.08347-49.654955 29.18788-67.476846-13.03027-7.508503-22.426-7.950124-29.25747-4.997844-.85501-7.398208-5.92537-15.312528-18.95562-22.856087-6.64417-3.836263-12.51906-5.510343-17.6495-5.423276z" fill="#010306" filter="url(#filter837)" opacity=".1" stroke-width="4.384643"/>
  <path d="m143.37858 11.059087c-21.87815.371286-30.19933 32.789112-26.93349 66.305912-17.197362-37.851982-48.869359-65.40812-69.065259-30.428396-7.512909 13.047979-7.943947 22.436019-4.983928 29.273366-7.394922.854983-15.311856 5.934144-22.846146 18.955623-17.8479596 30.895188 19.210131 46.001318 59.073552 43.833518-36.24202 17.4749-61.399359 47.98073-27.368858 67.62793 13.049063 7.51268 22.435351 7.94381 29.269391 4.98393.860135 7.39479 5.93422 15.31051 18.951646 22.84018 30.205802 17.44908 45.272842-17.59154 43.909052-56.41559 18.23055 34.3144 48.84297 57.10645 66.27808 26.88577 7.50864-13.02921 7.94828-22.42468 4.99586-29.25945 7.39844-.85361 15.31351-5.92112 22.85808-18.95164 19.63864-34.01454-17.35974-47.86734-57.46327-44.8971 35.58238-18.062291 60.08347-49.654955 29.18788-67.476846-13.03027-7.508503-22.426-7.950124-29.25747-4.997844-.85501-7.398208-5.92537-15.312528-18.95562-22.856087-6.64417-3.836263-12.51906-5.510343-17.6495-5.423276z" fill="#010306" opacity=".1" stroke-width="4.384643"/>
  <g stroke-width="4.307714">
    <path d="m129.32215 125.52768c-.27306.0168-.54479.031-.8161.0422.003.10528.0146.21455.0168.31974l.009.0254h.0422c.24313-.13366.5032-.25514.7488-.38702zm-.79086.38704c-13.93189 7.65622-31.695637 11.84909-48.941105 12.797-35.651951 17.16154-60.433685 47.16597-26.973557 66.48387 12.820117 7.38088 22.043072 7.80465 28.757209 4.8967.845044 7.26505 5.829952 15.04141 18.618987 22.43897 29.700746 17.15732 44.503916-17.33998 43.135816-55.52108-8.46527-15.9542-14.24354-34.39845-14.59735-51.09546z" fill="#5884f4"/>
    <path d="m130.22367 125.46778c1.76006-.0379 3.53994-.13459 5.3346-.28827 51.24855-4.40152 114.55114-55.039398 72.27381-79.426763-12.80165-7.376767-22.03327-7.810207-28.74488-4.909725-.84001-7.268407-5.82122-15.044194-18.62286-22.455402-46.41853-26.8014675-54.61695 53.765953-33.39009 100.73138.98516 2.1791.56213 4.53106 1.67312 6.55141" fill="#f22c42"/>
    <path d="m128.53527 125.913c1.10225 52.01621 54.46743 121.36144 79.71035 77.60732 7.3769-12.80061 7.80967-22.03122 4.90905-28.74607 7.26863-.83864 15.04444-5.81646 22.45664-18.61836 28.04515-48.57479-61.47475-55.29978-107.04152-30.24457" fill="#fdc92b"/>
    <path d="m128.53527 125.913c-45.595333 25.05681-132.3339739 13.51537-107.066704-30.222809 7.402101-12.793018 15.179681-17.782543 22.44486-18.622525-2.908086-6.717386-2.484722-15.940455 4.896373-28.759508 28.045161-48.57480819 78.625061 25.587706 79.717071 77.579642" fill="#46a926"/>
    <path d="m116 64.078125c-.01492 3.829575.13491 7.735487.45117 11.669922.06971.152037.14366.300745.21289.453125-.39725-4.076979-.61949-8.136878-.66406-12.123047zm105.64648.751953c-.76591 15.68625-19.21026 33.397491-42.49023 45.214842 1.4095-.10439 2.81361-.1822 4.21289-.24414 22.22088-12.278255 39.03261-29.759158 38.27734-44.970702zm-179.376949 2.892578c-.104826 2.754515.244879 5.22828.949219 7.451172.231945-.0352.464375-.078768.695312-.105469-.940576-2.172638-1.523671-4.611898-1.644531-7.345703zm-25.294922 41.671874c-.942273 20.14644 27.1771 30.2324 58.25586 29.51953 1.405575-.7372 2.824936-1.46158 4.269531-2.1582-31.669683 1.72087-61.530222-7.6584-62.525391-27.36133zm223.941411 28.73828c-.19606 4.72311-1.85918 10.05574-5.30469 16.02344-7.4122 12.8019-15.1884 17.77855-22.45703 18.61719.26266.60805.48803 1.24444.69336 1.89453 7.06881-1.06936 14.5861-6.11507 21.76367-18.51172 3.94053-6.82509 5.55811-12.82274 5.30469-18.02344zm-97.78516 36.97071c.02449.6969.0312 1.38985.04492 2.08398 17.91581 33.66698 47.95489 55.99858 65.07031 26.33203 5.00215-8.67987 6.80499-15.71383 6.54688-21.43945-.19903 5.34466-2.11115 11.74245-6.54688 19.43945-17.12972 29.69133-47.20474 7.29801-65.11523-26.41601zm.07031 5.22851c-.13453 35.96784-14.89679 66.55441-43.208982 50.19922-12.789036-7.39756-17.774097-15.1744-18.619141-22.43945-6.714137 2.90795-15.935744 2.48439-28.755859-4.89649-10.660016-6.15446-15.400648-13.39417-15.769532-20.95703-.423243 8.283 4.172714 16.26172 15.769532 22.95703 12.820115 7.38088 22.041722 7.80444 28.755859 4.89649.845044 7.26505 5.830105 15.04189 18.619141 22.43945 28.836382 16.658 43.624492-15.37687 43.208982-52.19922z" fill="#242831" opacity=".2"/>
    <path d="m143.125 13.058594c-18.83305.319608-27.44042 24.810393-27.125 53.019531.10656-27.355515 8.73921-50.707514 27.125-51.019531 5.04043-.085539 10.81224 1.559168 17.33984 5.328125 12.80164 7.411208 17.78304 15.188624 18.62305 22.457031 6.71161-2.900482 15.94249-2.468564 28.74414 4.908203 9.27591 5.350738 13.46133 11.965927 13.81445 19.078125.38422-7.868822-3.67453-15.228988-13.81445-21.078125-12.80165-7.376767-22.03253-7.808685-28.74414-4.908203-.84001-7.268407-5.82141-15.045823-18.62305-22.457031-6.5276-3.768957-12.29941-5.413664-17.33984-5.328125zm-72.041016 19.451172c-8.037627-.139935-15.762924 4.522482-22.273437 15.798828-4.99379 8.672922-6.793832 15.69546-6.541016 21.414062.203114-5.337193 2.113334-11.724325 6.541016-19.414062 19.841564-34.366006 50.957881-7.295294 67.853513 29.892578-.0798-.819043-.1472-1.635886-.21289-2.453125-11.36006-24.777279-29.009559-44.953496-45.367186-45.238281zm-27.865234 44.664062c-7.064939 1.072188-14.583189 6.129258-21.75 18.515625-3.354451 5.806627-4.729568 11.043947-4.494141 15.705077.193901-4.14573 1.610906-8.71414 4.494141-13.705077 7.402101-12.793018 15.180135-17.781112 22.445312-18.621094-.263302-.608202-.489324-1.244433-.695312-1.894531zm146.89453 34.488282c-2.22428-.01218-4.47645.0383-6.74414.13867-1.387.7664-2.78669 1.52018-4.21289 2.24414 31.35308-2.32216 60.77236 5.82436 61.75977 26.08789.79888-19.24572-22.88512-28.31789-50.80274-28.4707zm-61.61328 15.46484c.0044.14742.01163.29629.01562.44336.06037-.003.12125-.00676.18165-.00976-.07427-.14272-.13657-.28788-.19727-.4336zm.03125.78711c.0066.30927.02876.62316.03906.9336-.0103-.31078-.02815-.62402-.03515-.9336zm-49.03125 12.8418c-1.428209.07761-2.851142.12567-4.269531.1582-22.190171 11.63835-39.123873 28.13099-38.382813 43.32422.796898-15.59551 19.399221-32.26919 42.652344-43.48242zm134.34766 35.91211c-.23108.03496-.46327.07892-.69336.10547.93376 2.16162 1.51613 4.58842 1.63867 7.30664.10199-2.73897-.2466-5.19988-.94531-7.41211zm-70.7168 2.43555c.03794 1.07964.05821 2.15591.07031 3.22851.00391-1.04423-.00459-2.09224-.02539-3.14453-.01496-.02812-.02997-.05585-.04492-.08398z" fill="#dfdfe0" opacity=".3"/>
  </g>
</svg>

<?xml version="1.0" encoding="UTF-8" standalone="no"?>
<svg
   xmlns:dc="http://purl.org/dc/elements/1.1/"
   xmlns:cc="http://creativecommons.org/ns#"
   xmlns:rdf="http://www.w3.org/1999/02/22-rdf-syntax-ns#"
   xmlns:svg="http://www.w3.org/2000/svg"
   xmlns="http://www.w3.org/2000/svg"
   xmlns:sodipodi="http://sodipodi.sourceforge.net/DTD/sodipodi-0.dtd"
   xmlns:inkscape="http://www.inkscape.org/namespaces/inkscape"
   width="256"
   height="256"
   version="1.1"
   viewBox="0 0 256 256"
   id="svg28"
   sodipodi:docname="playonlinux.svg"
   inkscape:version="0.92.3 (2405546, 2018-03-11)">
  <metadata
     id="metadata34">
    <rdf:RDF>
      <cc:Work
         rdf:about="">
        <dc:format>image/svg+xml</dc:format>
        <dc:type
           rdf:resource="http://purl.org/dc/dcmitype/StillImage" />
        <dc:title></dc:title>
      </cc:Work>
    </rdf:RDF>
  </metadata>
  <defs
     id="defs32">
    <filter
       inkscape:collect="always"
       style="color-interpolation-filters:sRGB"
       id="filter837"
       x="-0.012000003"
       width="1.024"
       y="-0.011999997"
       height="1.024">
      <feGaussianBlur
         inkscape:collect="always"
         stdDeviation="1.1400003"
         id="feGaussianBlur839" />
    </filter>
    <filter
       inkscape:collect="always"
       style="color-interpolation-filters:sRGB"
       id="filter871"
       x="-0.048000014"
       width="1.096"
       y="-0.047999986"
       height="1.096">
      <feGaussianBlur
         inkscape:collect="always"
         stdDeviation="4.5600014"
         id="feGaussianBlur873" />
    </filter>
  </defs>
  <sodipodi:namedview
     pagecolor="#ffffff"
     bordercolor="#666666"
     borderopacity="1"
     objecttolerance="10"
     gridtolerance="10"
     guidetolerance="10"
     inkscape:pageopacity="0"
     inkscape:pageshadow="2"
     inkscape:window-width="1920"
     inkscape:window-height="1009"
     id="namedview30"
     showgrid="false"
     inkscape:zoom="3.5929559"
     inkscape:cx="91.588255"
     inkscape:cy="199.32712"
     inkscape:window-x="0"
     inkscape:window-y="34"
     inkscape:window-maximized="1"
     inkscape:current-layer="svg28" />
  <path
     style="opacity:0.1;fill:#010306;fill-opacity:1;stroke-width:4.3846426;filter:url(#filter871)"
     d="M 143.37858,11.059087 C 121.50043,11.430373 113.17925,43.848199 116.44509,77.364999 99.247728,39.513017 67.575731,11.956879 47.379831,46.936603 39.866922,59.984582 39.435884,69.372622 42.395903,76.209969 35.000981,77.064952 27.084047,82.144113 19.549757,95.165592 1.7017974,126.06078 38.759888,141.16691 78.623309,138.99911 c -36.24202,17.4749 -61.399359,47.98073 -27.368858,67.62793 13.049063,7.51268 22.435351,7.94381 29.269391,4.98393 0.860135,7.39479 5.93422,15.31051 18.951646,22.84018 30.205802,17.44908 45.272842,-17.59154 43.909052,-56.41559 18.23055,34.3144 48.84297,57.10645 66.27808,26.88577 7.50864,-13.02921 7.94828,-22.42468 4.99586,-29.25945 7.39844,-0.85361 15.31351,-5.92112 22.85808,-18.95164 C 257.1552,122.6957 220.15682,108.8429 180.05329,111.81314 215.63567,93.750849 240.13676,62.158185 209.24117,44.336294 196.2109,36.827791 186.81517,36.38617 179.9837,39.33845 179.12869,31.940242 174.05833,24.025922 161.02808,16.482363 154.38391,12.6461 148.50902,10.97202 143.37858,11.059087 Z"
     id="path841"
     inkscape:connector-curvature="0"
     sodipodi:nodetypes="sccccccccccccccccs" />
  <path
     sodipodi:nodetypes="sccccccccccccccccs"
     inkscape:connector-curvature="0"
     id="path831"
     d="M 143.37858,11.059087 C 121.50043,11.430373 113.17925,43.848199 116.44509,77.364999 99.247728,39.513017 67.575731,11.956879 47.379831,46.936603 39.866922,59.984582 39.435884,69.372622 42.395903,76.209969 35.000981,77.064952 27.084047,82.144113 19.549757,95.165592 1.7017974,126.06078 38.759888,141.16691 78.623309,138.99911 c -36.24202,17.4749 -61.399359,47.98073 -27.368858,67.62793 13.049063,7.51268 22.435351,7.94381 29.269391,4.98393 0.860135,7.39479 5.93422,15.31051 18.951646,22.84018 30.205802,17.44908 45.272842,-17.59154 43.909052,-56.41559 18.23055,34.3144 48.84297,57.10645 66.27808,26.88577 7.50864,-13.02921 7.94828,-22.42468 4.99586,-29.25945 7.39844,-0.85361 15.31351,-5.92112 22.85808,-18.95164 C 257.1552,122.6957 220.15682,108.8429 180.05329,111.81314 215.63567,93.750849 240.13676,62.158185 209.24117,44.336294 196.2109,36.827791 186.81517,36.38617 179.9837,39.33845 179.12869,31.940242 174.05833,24.025922 161.02808,16.482363 154.38391,12.6461 148.50902,10.97202 143.37858,11.059087 Z"
     style="opacity:0.1;fill:#010306;fill-opacity:1;stroke-width:4.3846426;filter:url(#filter837)" />
  <path
     style="opacity:0.1;fill:#010306;fill-opacity:1;stroke-width:4.3846426"
     d="M 143.37858,11.059087 C 121.50043,11.430373 113.17925,43.848199 116.44509,77.364999 99.247728,39.513017 67.575731,11.956879 47.379831,46.936603 39.866922,59.984582 39.435884,69.372622 42.395903,76.209969 35.000981,77.064952 27.084047,82.144113 19.549757,95.165592 1.7017974,126.06078 38.759888,141.16691 78.623309,138.99911 c -36.24202,17.4749 -61.399359,47.98073 -27.368858,67.62793 13.049063,7.51268 22.435351,7.94381 29.269391,4.98393 0.860135,7.39479 5.93422,15.31051 18.951646,22.84018 30.205802,17.44908 45.272842,-17.59154 43.909052,-56.41559 18.23055,34.3144 48.84297,57.10645 66.27808,26.88577 7.50864,-13.02921 7.94828,-22.42468 4.99586,-29.25945 7.39844,-0.85361 15.31351,-5.92112 22.85808,-18.95164 C 257.1552,122.6957 220.15682,108.8429 180.05329,111.81314 215.63567,93.750849 240.13676,62.158185 209.24117,44.336294 196.2109,36.827791 186.81517,36.38617 179.9837,39.33845 179.12869,31.940242 174.05833,24.025922 161.02808,16.482363 154.38391,12.6461 148.50902,10.97202 143.37858,11.059087 Z"
     id="path822"
     inkscape:connector-curvature="0"
     sodipodi:nodetypes="sccccccccccccccccs" />
  <path
     style="fill:#5884f4;fill-opacity:1;stroke-width:4.30771446"
     d="m 129.32215,125.52768 c -0.27306,0.0168 -0.54479,0.031 -0.8161,0.0422 0.003,0.10528 0.0146,0.21455 0.0168,0.31974 l 0.009,0.0254 h 0.0422 c 0.24313,-0.13366 0.5032,-0.25514 0.7488,-0.38702 z m -0.79086,0.38704 c -13.93189,7.65622 -31.695637,11.84909 -48.941105,12.797 -35.651951,17.16154 -60.433685,47.16597 -26.973557,66.48387 12.820117,7.38088 22.043072,7.80465 28.757209,4.8967 0.845044,7.26505 5.829952,15.04141 18.618987,22.43897 29.700746,17.15732 44.503916,-17.33998 43.135816,-55.52108 -8.46527,-15.9542 -14.24354,-34.39845 -14.59735,-51.09546 z"
     id="path12"
     inkscape:connector-curvature="0" />
  <path
     style="fill:#f22c42;fill-opacity:1;stroke-width:4.30771446"
     d="m 130.22367,125.46778 c 1.76006,-0.0379 3.53994,-0.13459 5.3346,-0.28827 51.24855,-4.40152 114.55114,-55.039398 72.27381,-79.426763 C 195.03043,38.37598 185.79881,37.94254 179.0872,40.843022 178.24719,33.574615 173.26598,25.798828 160.46434,18.38762 114.04581,-8.4138475 105.84739,72.153573 127.07425,119.119 c 0.98516,2.1791 0.56213,4.53106 1.67312,6.55141"
     id="path14"
     inkscape:connector-curvature="0" />
  <path
     style="fill:#fdc92b;fill-opacity:1;stroke-width:4.30771446"
     d="m 128.53527,125.913 c 1.10225,52.01621 54.46743,121.36144 79.71035,77.60732 7.3769,-12.80061 7.80967,-22.03122 4.90905,-28.74607 7.26863,-0.83864 15.04444,-5.81646 22.45664,-18.61836 28.04515,-48.57479 -61.47475,-55.29978 -107.04152,-30.24457"
     id="path16"
     inkscape:connector-curvature="0" />
  <path
     style="fill:#46a926;fill-opacity:1;stroke-width:4.30771446"
     d="M 128.53527,125.913 C 82.939937,150.96981 -3.7987039,139.42837 21.468566,95.690191 28.870667,82.897173 36.648247,77.907648 43.913426,77.067666 41.00534,70.35028 41.428704,61.127211 48.809799,48.308158 76.85496,-0.26665019 127.43486,73.895864 128.52687,125.8878"
     id="path18"
     inkscape:connector-curvature="0" />
  <g
     transform="matrix(0.30121191,0,0,0.35302425,-174.28256,7.3109077)"
     id="g944" />
  <path
     style="fill:#242831;fill-opacity:1;stroke-width:4.30771446;opacity:0.2"
     d="M 116 64.078125 C 115.98508 67.9077 116.13491 71.813612 116.45117 75.748047 C 116.52088 75.900084 116.59483 76.048792 116.66406 76.201172 C 116.26681 72.124193 116.04457 68.064294 116 64.078125 z M 221.64648 64.830078 C 220.88057 80.516328 202.43622 98.227569 179.15625 110.04492 C 180.56575 109.94053 181.96986 109.86272 183.36914 109.80078 C 205.59002 97.522525 222.40175 80.041622 221.64648 64.830078 z M 42.269531 67.722656 C 42.164705 70.477171 42.51441 72.950936 43.21875 75.173828 C 43.450695 75.138628 43.683125 75.09506 43.914062 75.068359 C 42.973486 72.895721 42.390391 70.456461 42.269531 67.722656 z M 16.974609 109.39453 C 16.032336 129.54097 44.151709 139.62693 75.230469 138.91406 C 76.636044 138.17686 78.055405 137.45248 79.5 136.75586 C 47.830317 138.47673 17.969778 129.09746 16.974609 109.39453 z M 240.91602 138.13281 C 240.71996 142.85592 239.05684 148.18855 235.61133 154.15625 C 228.19913 166.95815 220.42293 171.9348 213.1543 172.77344 C 213.41696 173.38149 213.64233 174.01788 213.84766 174.66797 C 220.91647 173.59861 228.43376 168.5529 235.61133 156.15625 C 239.55186 149.33116 241.16944 143.33351 240.91602 138.13281 z M 143.13086 175.10352 C 143.15535 175.80042 143.16206 176.49337 143.17578 177.1875 C 161.09159 210.85448 191.13067 233.18608 208.24609 203.51953 C 213.24824 194.83966 215.05108 187.8057 214.79297 182.08008 C 214.59394 187.42474 212.68182 193.82253 208.24609 201.51953 C 191.11637 231.21086 161.04135 208.81754 143.13086 175.10352 z M 143.20117 180.33203 C 143.06664 216.29987 128.30438 246.88644 99.992188 230.53125 C 87.203152 223.13369 82.218091 215.35685 81.373047 208.0918 C 74.65891 210.99975 65.437303 210.57619 52.617188 203.19531 C 41.957172 197.04085 37.21654 189.80114 36.847656 182.23828 C 36.424413 190.52128 41.02037 198.5 52.617188 205.19531 C 65.437303 212.57619 74.65891 212.99975 81.373047 210.0918 C 82.218091 217.35685 87.203152 225.13369 99.992188 232.53125 C 128.82857 249.18925 143.61668 217.15438 143.20117 180.33203 z "
     id="path1081" />
  <path
     style="fill:#dfdfe0;fill-opacity:1;stroke-width:4.30771446;opacity:0.3"
     d="M 143.125 13.058594 C 124.29195 13.378202 115.68458 37.868987 116 66.078125 C 116.10656 38.72261 124.73921 15.370611 143.125 15.058594 C 148.16543 14.973055 153.93724 16.617762 160.46484 20.386719 C 173.26648 27.797927 178.24788 35.575343 179.08789 42.84375 C 185.7995 39.943268 195.03038 40.375186 207.83203 47.751953 C 217.10794 53.102691 221.29336 59.71788 221.64648 66.830078 C 222.0307 58.961256 217.97195 51.60109 207.83203 45.751953 C 195.03038 38.375186 185.7995 37.943268 179.08789 40.84375 C 178.24788 33.575343 173.26648 25.797927 160.46484 18.386719 C 153.93724 14.617762 148.16543 12.973055 143.125 13.058594 z M 71.083984 32.509766 C 63.046357 32.369831 55.32106 37.032248 48.810547 48.308594 C 43.816757 56.981516 42.016715 64.004054 42.269531 69.722656 C 42.472645 64.385463 44.382865 57.998331 48.810547 50.308594 C 68.652111 15.942588 99.768428 43.0133 116.66406 80.201172 C 116.58426 79.382129 116.51686 78.565286 116.45117 77.748047 C 105.09111 52.970768 87.441611 32.794551 71.083984 32.509766 z M 43.21875 77.173828 C 36.153811 78.246016 28.635561 83.303086 21.46875 95.689453 C 18.114299 101.49608 16.739182 106.7334 16.974609 111.39453 C 17.16851 107.2488 18.585515 102.68039 21.46875 97.689453 C 28.870851 84.896435 36.648885 79.908341 43.914062 79.068359 C 43.65076 78.460157 43.424738 77.823926 43.21875 77.173828 z M 190.11328 111.66211 C 187.889 111.64993 185.63683 111.70041 183.36914 111.80078 C 181.98214 112.56718 180.58245 113.32096 179.15625 114.04492 C 210.50933 111.72276 239.92861 119.86928 240.91602 140.13281 C 241.7149 120.88709 218.0309 111.81492 190.11328 111.66211 z M 128.5 127.12695 C 128.5044 127.27437 128.51163 127.42324 128.51562 127.57031 C 128.57599 127.56731 128.63687 127.56355 128.69727 127.56055 C 128.623 127.41783 128.5607 127.27267 128.5 127.12695 z M 128.53125 127.91406 C 128.53785 128.22333 128.56001 128.53722 128.57031 128.84766 C 128.56001 128.53688 128.54216 128.22364 128.53516 127.91406 L 128.53125 127.91406 z M 79.5 140.75586 C 78.071791 140.83347 76.648858 140.88153 75.230469 140.91406 C 53.040298 152.55241 36.106596 169.04505 36.847656 184.23828 C 37.644554 168.64277 56.246877 151.96909 79.5 140.75586 z M 213.84766 176.66797 C 213.61658 176.70293 213.38439 176.74689 213.1543 176.77344 C 214.08806 178.93506 214.67043 181.36186 214.79297 184.08008 C 214.89496 181.34111 214.54637 178.8802 213.84766 176.66797 z M 143.13086 179.10352 C 143.1688 180.18316 143.18907 181.25943 143.20117 182.33203 C 143.20508 181.2878 143.19658 180.23979 143.17578 179.1875 C 143.16082 179.15938 143.14581 179.13165 143.13086 179.10352 z "
     id="path1092" />
</svg>
